images/6605197.svg

<?xml version="1.0" encoding="UTF-8"?>
<svg xmlns="http://www.w3.org/2000/svg" xmlns:xlink="http://www.w3.org/1999/xlink" width="300pt" height="300pt" viewBox="0 0 300 300" version="1.1">
<defs>
<g>
<symbol overflow="visible" id="glyph0-0">
<path style="stroke:none;" d="M 0.453125 1.59375 L 0.453125 -6.34375 L 4.953125 -6.34375 L 4.953125 1.59375 Z M 0.953125 1.09375 L 4.453125 1.09375 L 4.453125 -5.84375 L 0.953125 -5.84375 Z M 0.953125 1.09375 "/>
</symbol>
<symbol overflow="visible" id="glyph0-1">
<path style="stroke:none;" d="M 0.890625 -6.5625 L 2.078125 -6.5625 L 4.984375 -1.078125 L 4.984375 -6.5625 L 5.84375 -6.5625 L 5.84375 0 L 4.65625 0 L 1.75 -5.484375 L 1.75 0 L 0.890625 0 Z M 0.890625 -6.5625 "/>
</symbol>
</g>
</defs>
<g id="surface40749">
<rect x="0" y="0" width="300" height="300" style="fill:rgb(100%,100%,100%);fill-opacity:1;stroke:none;"/>
<path style="fill:none;stroke-width:1.2;stroke-linecap:butt;stroke-linejoin:miter;stroke:rgb(0%,0%,0%);stroke-opacity:1;stroke-miterlimit:10;" d="M 35.25 136.285156 L 54.652344 130.335938 "/>
<path style="fill:none;stroke-width:1.2;stroke-linecap:butt;stroke-linejoin:miter;stroke:rgb(0%,0%,0%);stroke-opacity:1;stroke-miterlimit:10;" d="M 54.652344 130.335938 L 69.503906 144.164062 "/>
<path style="fill:none;stroke-width:1.2;stroke-linecap:butt;stroke-linejoin:miter;stroke:rgb(0%,0%,0%);stroke-opacity:1;stroke-miterlimit:10;" d="M 69.503906 144.164062 L 79.207031 141.191406 "/>
<path style="fill:none;stroke-width:1.2;stroke-linecap:butt;stroke-linejoin:miter;stroke:rgb(0%,0%,100%);stroke-opacity:1;stroke-miterlimit:10;" d="M 79.207031 141.191406 L 88.90625 138.21875 "/>
<path style="fill:none;stroke-width:1.2;stroke-linecap:butt;stroke-linejoin:miter;stroke:rgb(0%,0%,100%);stroke-opacity:1;stroke-miterlimit:10;" d="M 88.90625 138.21875 L 92.203125 128.621094 "/>
<path style="fill:none;stroke-width:1.2;stroke-linecap:butt;stroke-linejoin:miter;stroke:rgb(0%,0%,0%);stroke-opacity:1;stroke-miterlimit:10;" d="M 92.203125 128.621094 L 95.5 119.023438 "/>
<path style="fill:none;stroke-width:1.2;stroke-linecap:butt;stroke-linejoin:miter;stroke:rgb(0%,0%,0%);stroke-opacity:1;stroke-miterlimit:10;" d="M 105.125 150.417969 L 97.015625 144.316406 "/>
<path style="fill:none;stroke-width:1.2;stroke-linecap:butt;stroke-linejoin:miter;stroke:rgb(0%,0%,100%);stroke-opacity:1;stroke-miterlimit:10;" d="M 97.015625 144.316406 L 88.90625 138.21875 "/>
<path style=" stroke:none;fill-rule:nonzero;fill:rgb(100%,100%,100%);fill-opacity:1;" d="M 85.90625 132.71875 L 92.90625 132.71875 L 92.90625 143.71875 L 85.90625 143.71875 Z M 85.90625 132.71875 "/>
<g style="fill:rgb(0%,0%,100%);fill-opacity:1;">
  <use xlink:href="#glyph0-1" x="85.90625" y="141.381836"/>
</g>
<path style="fill:none;stroke-width:1.2;stroke-linecap:butt;stroke-linejoin:miter;stroke:rgb(0%,0%,0%);stroke-opacity:1;stroke-miterlimit:10;" d="M 95.5 119.023438 L 105.644531 119.191406 "/>
<path style="fill:none;stroke-width:1.2;stroke-linecap:butt;stroke-linejoin:miter;stroke:rgb(0%,0%,100%);stroke-opacity:1;stroke-miterlimit:10;" d="M 105.644531 119.191406 L 115.789062 119.363281 "/>
<path style="fill:none;stroke-width:1.2;stroke-linecap:butt;stroke-linejoin:miter;stroke:rgb(0%,0%,0%);stroke-opacity:1;stroke-miterlimit:10;" d="M 97.449219 123.832031 L 105.566406 123.96875 "/>
<path style="fill:none;stroke-width:1.2;stroke-linecap:butt;stroke-linejoin:miter;stroke:rgb(0%,0%,100%);stroke-opacity:1;stroke-miterlimit:10;" d="M 105.566406 123.96875 L 113.683594 124.101562 "/>
<path style="fill:none;stroke-width:1.2;stroke-linecap:butt;stroke-linejoin:miter;stroke:rgb(0%,0%,0%);stroke-opacity:1;stroke-miterlimit:10;" d="M 95.5 119.023438 L 83.847656 102.410156 "/>
<path style="fill:none;stroke-width:1.2;stroke-linecap:butt;stroke-linejoin:miter;stroke:rgb(0%,0%,100%);stroke-opacity:1;stroke-miterlimit:10;" d="M 115.789062 119.363281 L 118.765625 129.0625 "/>
<path style="fill:none;stroke-width:1.2;stroke-linecap:butt;stroke-linejoin:miter;stroke:rgb(0%,0%,0%);stroke-opacity:1;stroke-miterlimit:10;" d="M 118.765625 129.0625 L 121.738281 138.765625 "/>
<path style=" stroke:none;fill-rule:nonzero;fill:rgb(100%,100%,100%);fill-opacity:1;" d="M 112.789062 113.863281 L 119.789062 113.863281 L 119.789062 124.863281 L 112.789062 124.863281 Z M 112.789062 113.863281 "/>
<g style="fill:rgb(0%,0%,100%);fill-opacity:1;">
  <use xlink:href="#glyph0-1" x="112.789062" y="122.526367"/>
</g>
<path style="fill:none;stroke-width:1.2;stroke-linecap:butt;stroke-linejoin:miter;stroke:rgb(0%,0%,0%);stroke-opacity:1;stroke-miterlimit:10;" d="M 121.738281 138.765625 L 105.125 150.417969 "/>
<path style="fill:none;stroke-width:1.2;stroke-linecap:butt;stroke-linejoin:miter;stroke:rgb(0%,0%,0%);stroke-opacity:1;stroke-miterlimit:10;" d="M 122.820312 143.839844 L 109.527344 153.160156 "/>
<path style="fill:none;stroke-width:1.2;stroke-linecap:butt;stroke-linejoin:miter;stroke:rgb(0%,0%,0%);stroke-opacity:1;stroke-miterlimit:10;" d="M 140.136719 147.328125 L 121.738281 138.765625 "/>
<path style="fill:none;stroke-width:1.2;stroke-linecap:butt;stroke-linejoin:miter;stroke:rgb(0%,0%,0%);stroke-opacity:1;stroke-miterlimit:10;" d="M 105.125 150.417969 L 106.015625 160.523438 "/>
<path style="fill:none;stroke-width:1.2;stroke-linecap:butt;stroke-linejoin:miter;stroke:rgb(0%,0%,100%);stroke-opacity:1;stroke-miterlimit:10;" d="M 106.015625 160.523438 L 106.910156 170.632812 "/>
<path style="fill:none;stroke-width:1.2;stroke-linecap:butt;stroke-linejoin:miter;stroke:rgb(0%,0%,100%);stroke-opacity:1;stroke-miterlimit:10;" d="M 106.910156 170.632812 L 116.109375 174.914062 "/>
<path style="fill:none;stroke-width:1.2;stroke-linecap:butt;stroke-linejoin:miter;stroke:rgb(0%,0%,0%);stroke-opacity:1;stroke-miterlimit:10;" d="M 116.109375 174.914062 L 125.308594 179.195312 "/>
<path style="fill:none;stroke-width:1.2;stroke-linecap:butt;stroke-linejoin:miter;stroke:rgb(0%,0%,100%);stroke-opacity:1;stroke-miterlimit:10;" d="M 110.761719 167.160156 L 118.121094 170.585938 "/>
<path style="fill:none;stroke-width:1.2;stroke-linecap:butt;stroke-linejoin:miter;stroke:rgb(0%,0%,0%);stroke-opacity:1;stroke-miterlimit:10;" d="M 118.121094 170.585938 L 125.484375 174.007812 "/>
<path style=" stroke:none;fill-rule:nonzero;fill:rgb(100%,100%,100%);fill-opacity:1;" d="M 103.910156 165.132812 L 110.910156 165.132812 L 110.910156 176.132812 L 103.910156 176.132812 Z M 103.910156 165.132812 "/>
<g style="fill:rgb(0%,0%,100%);fill-opacity:1;">
  <use xlink:href="#glyph0-1" x="103.910156" y="173.795898"/>
</g>
<path style="fill:none;stroke-width:1.2;stroke-linecap:butt;stroke-linejoin:miter;stroke:rgb(0%,0%,0%);stroke-opacity:1;stroke-miterlimit:10;" d="M 125.308594 179.195312 L 133.613281 173.367188 "/>
<path style="fill:none;stroke-width:1.2;stroke-linecap:butt;stroke-linejoin:miter;stroke:rgb(0%,0%,100%);stroke-opacity:1;stroke-miterlimit:10;" d="M 133.613281 173.367188 L 141.921875 167.542969 "/>
<path style="fill:none;stroke-width:1.2;stroke-linecap:butt;stroke-linejoin:miter;stroke:rgb(0%,0%,0%);stroke-opacity:1;stroke-miterlimit:10;" d="M 125.308594 179.195312 L 127.09375 199.410156 "/>
<path style="fill:none;stroke-width:1.2;stroke-linecap:butt;stroke-linejoin:miter;stroke:rgb(0%,0%,100%);stroke-opacity:1;stroke-miterlimit:10;" d="M 141.921875 167.542969 L 141.03125 157.433594 "/>
<path style="fill:none;stroke-width:1.2;stroke-linecap:butt;stroke-linejoin:miter;stroke:rgb(0%,0%,0%);stroke-opacity:1;stroke-miterlimit:10;" d="M 141.03125 157.433594 L 140.136719 147.328125 "/>
<path style="fill:none;stroke-width:1.2;stroke-linecap:butt;stroke-linejoin:miter;stroke:rgb(0%,0%,100%);stroke-opacity:1;stroke-miterlimit:10;" d="M 136.988281 165.941406 L 136.273438 157.855469 "/>
<path style="fill:none;stroke-width:1.2;stroke-linecap:butt;stroke-linejoin:miter;stroke:rgb(0%,0%,0%);stroke-opacity:1;stroke-miterlimit:10;" d="M 136.273438 157.855469 L 135.558594 149.769531 "/>
<path style=" stroke:none;fill-rule:nonzero;fill:rgb(100%,100%,100%);fill-opacity:1;" d="M 138.921875 162.042969 L 145.921875 162.042969 L 145.921875 173.042969 L 138.921875 173.042969 Z M 138.921875 162.042969 "/>
<g style="fill:rgb(0%,0%,100%);fill-opacity:1;">
  <use xlink:href="#glyph0-1" x="138.921875" y="170.706055"/>
</g>
<path style="fill:none;stroke-width:1.2;stroke-linecap:butt;stroke-linejoin:miter;stroke:rgb(0%,0%,0%);stroke-opacity:1;stroke-miterlimit:10;" d="M 140.136719 147.328125 L 148.445312 141.5 "/>
<path style="fill:none;stroke-width:1.2;stroke-linecap:butt;stroke-linejoin:miter;stroke:rgb(0%,0%,100%);stroke-opacity:1;stroke-miterlimit:10;" d="M 148.445312 141.5 L 156.753906 135.671875 "/>
<path style="fill:none;stroke-width:1.2;stroke-linecap:butt;stroke-linejoin:miter;stroke:rgb(0%,0%,100%);stroke-opacity:1;stroke-miterlimit:10;" d="M 156.753906 135.671875 L 155.105469 125.660156 "/>
<path style="fill:none;stroke-width:1.2;stroke-linecap:butt;stroke-linejoin:miter;stroke:rgb(0%,0%,0%);stroke-opacity:1;stroke-miterlimit:10;" d="M 155.105469 125.660156 L 153.460938 115.648438 "/>
<path style="fill:none;stroke-width:1.2;stroke-linecap:butt;stroke-linejoin:miter;stroke:rgb(0%,0%,0%);stroke-opacity:1;stroke-miterlimit:10;" d="M 174.460938 145.585938 L 165.605469 140.628906 "/>
<path style="fill:none;stroke-width:1.2;stroke-linecap:butt;stroke-linejoin:miter;stroke:rgb(0%,0%,100%);stroke-opacity:1;stroke-miterlimit:10;" d="M 165.605469 140.628906 L 156.753906 135.671875 "/>
<path style=" stroke:none;fill-rule:nonzero;fill:rgb(100%,100%,100%);fill-opacity:1;" d="M 153.753906 130.171875 L 160.753906 130.171875 L 160.753906 141.171875 L 153.753906 141.171875 Z M 153.753906 130.171875 "/>
<g style="fill:rgb(0%,0%,100%);fill-opacity:1;">
  <use xlink:href="#glyph0-1" x="153.753906" y="138.834961"/>
</g>
<path style="fill:none;stroke-width:1.2;stroke-linecap:butt;stroke-linejoin:miter;stroke:rgb(0%,0%,0%);stroke-opacity:1;stroke-miterlimit:10;" d="M 153.460938 115.648438 L 167.066406 100.589844 "/>
<path style="fill:none;stroke-width:1.2;stroke-linecap:butt;stroke-linejoin:miter;stroke:rgb(0%,0%,0%);stroke-opacity:1;stroke-miterlimit:10;" d="M 167.066406 100.589844 L 187.324219 101.839844 "/>
<path style="fill:none;stroke-width:1.2;stroke-linecap:butt;stroke-linejoin:miter;stroke:rgb(0%,0%,0%);stroke-opacity:1;stroke-miterlimit:10;" d="M 187.324219 101.839844 L 193.148438 110.144531 "/>
<path style="fill:none;stroke-width:1.2;stroke-linecap:butt;stroke-linejoin:miter;stroke:rgb(0%,0%,100%);stroke-opacity:1;stroke-miterlimit:10;" d="M 193.148438 110.144531 L 198.976562 118.453125 "/>
<path style="fill:none;stroke-width:1.2;stroke-linecap:butt;stroke-linejoin:miter;stroke:rgb(0%,0%,100%);stroke-opacity:1;stroke-miterlimit:10;" d="M 198.976562 118.453125 L 196.113281 128.1875 "/>
<path style="fill:none;stroke-width:1.2;stroke-linecap:butt;stroke-linejoin:miter;stroke:rgb(0%,0%,0%);stroke-opacity:1;stroke-miterlimit:10;" d="M 196.113281 128.1875 L 193.25 137.921875 "/>
<path style="fill:none;stroke-width:1.2;stroke-linecap:butt;stroke-linejoin:miter;stroke:rgb(0%,0%,100%);stroke-opacity:1;stroke-miterlimit:10;" d="M 198.976562 118.453125 L 208.988281 116.808594 "/>
<path style="fill:none;stroke-width:1.2;stroke-linecap:butt;stroke-linejoin:miter;stroke:rgb(0%,0%,0%);stroke-opacity:1;stroke-miterlimit:10;" d="M 208.988281 116.808594 L 219 115.164062 "/>
<path style=" stroke:none;fill-rule:nonzero;fill:rgb(100%,100%,100%);fill-opacity:1;" d="M 195.976562 112.953125 L 202.976562 112.953125 L 202.976562 123.953125 L 195.976562 123.953125 Z M 195.976562 112.953125 "/>
<g style="fill:rgb(0%,0%,100%);fill-opacity:1;">
  <use xlink:href="#glyph0-1" x="195.976562" y="121.616211"/>
</g>
<path style="fill:none;stroke-width:1.2;stroke-linecap:butt;stroke-linejoin:miter;stroke:rgb(0%,0%,0%);stroke-opacity:1;stroke-miterlimit:10;" d="M 193.25 137.921875 L 174.460938 145.585938 "/>
<path style="fill:none;stroke-width:1.2;stroke-linecap:butt;stroke-linejoin:miter;stroke:rgb(0%,0%,0%);stroke-opacity:1;stroke-miterlimit:10;" d="M 219 115.164062 L 231.863281 130.859375 "/>
<path style="fill:none;stroke-width:1.2;stroke-linecap:butt;stroke-linejoin:miter;stroke:rgb(0%,0%,0%);stroke-opacity:1;stroke-miterlimit:10;" d="M 231.863281 130.859375 L 224.699219 149.847656 "/>
<path style="fill:none;stroke-width:1.2;stroke-linecap:butt;stroke-linejoin:miter;stroke:rgb(0%,0%,0%);stroke-opacity:1;stroke-miterlimit:10;" d="M 235.613281 134.445312 L 229.882812 149.632812 "/>
<path style="fill:none;stroke-width:1.2;stroke-linecap:butt;stroke-linejoin:miter;stroke:rgb(0%,0%,0%);stroke-opacity:1;stroke-miterlimit:10;" d="M 251.886719 127.570312 L 231.863281 130.859375 "/>
<path style="fill:none;stroke-width:1.2;stroke-linecap:butt;stroke-linejoin:miter;stroke:rgb(0%,0%,0%);stroke-opacity:1;stroke-miterlimit:10;" d="M 224.699219 149.847656 L 237.5625 165.546875 "/>
<path style="fill:none;stroke-width:1.2;stroke-linecap:butt;stroke-linejoin:miter;stroke:rgb(0%,0%,0%);stroke-opacity:1;stroke-miterlimit:10;" d="M 237.5625 165.546875 L 257.585938 162.253906 "/>
<path style="fill:none;stroke-width:1.2;stroke-linecap:butt;stroke-linejoin:miter;stroke:rgb(0%,0%,0%);stroke-opacity:1;stroke-miterlimit:10;" d="M 238.789062 160.503906 L 254.808594 157.871094 "/>
<path style="fill:none;stroke-width:1.2;stroke-linecap:butt;stroke-linejoin:miter;stroke:rgb(0%,0%,0%);stroke-opacity:1;stroke-miterlimit:10;" d="M 257.585938 162.253906 L 264.75 143.265625 "/>
<path style="fill:none;stroke-width:1.2;stroke-linecap:butt;stroke-linejoin:miter;stroke:rgb(0%,0%,0%);stroke-opacity:1;stroke-miterlimit:10;" d="M 264.75 143.265625 L 251.886719 127.570312 "/>
<path style="fill:none;stroke-width:1.2;stroke-linecap:butt;stroke-linejoin:miter;stroke:rgb(0%,0%,0%);stroke-opacity:1;stroke-miterlimit:10;" d="M 259.769531 144.722656 L 249.480469 132.167969 "/>
</g>
</svg>

<svg xmlns="http://www.w3.org/2000/svg" xmlns:xlink="http://www.w3.org/1999/xlink" width="300pt" height="300pt" viewBox="0 0 300 300"><defs><symbol overflow="visible"><path d="M.453 1.594v-7.938h4.5v7.938zm.5-.5h3.5v-6.938h-3.5zm0 0"/></symbol><symbol overflow="visible" id="a"><path d="M.89-6.563H2.08l2.906 5.485v-5.484h.86V0H4.656L1.75-5.484V0H.89zm0 0"/></symbol></defs><g><path fill="#fff" d="M0 0h300v300H0z"/><path d="M35.25 136.285l19.402-5.95M54.652 130.336l14.852 13.828M69.504 144.164l9.703-2.973" stroke-width="1.2" stroke="#000" stroke-miterlimit="10" fill="none"/><path d="M79.207 141.19l9.7-2.97M88.906 138.22l3.297-9.6" stroke-width="1.2" stroke="#00f" stroke-miterlimit="10" fill="none"/><path d="M92.203 128.62l3.297-9.597M105.125 150.418l-8.11-6.102" stroke-width="1.2" stroke="#000" stroke-miterlimit="10" fill="none"/><path d="M97.016 144.316l-8.11-6.097" stroke-width="1.2" stroke="#00f" stroke-miterlimit="10" fill="none"/><path d="M85.906 132.72h7v11h-7zm0 0" fill="#fff"/><use xlink:href="#a" x="85.906" y="141.382" fill="#00f"/><path d="M95.5 119.023l10.145.168" stroke-width="1.2" stroke="#000" stroke-miterlimit="10" fill="none"/><path d="M105.645 119.19l10.144.173" stroke-width="1.2" stroke="#00f" stroke-miterlimit="10" fill="none"/><path d="M97.45 123.832l8.116.137" stroke-width="1.2" stroke="#000" stroke-miterlimit="10" fill="none"/><path d="M105.566 123.97l8.118.132" stroke-width="1.2" stroke="#00f" stroke-miterlimit="10" fill="none"/><path d="M95.5 119.023L83.848 102.41" stroke-width="1.2" stroke="#000" stroke-miterlimit="10" fill="none"/><path d="M115.79 119.363l2.976 9.7" stroke-width="1.2" stroke="#00f" stroke-miterlimit="10" fill="none"/><path d="M118.766 129.063l2.972 9.703" stroke-width="1.2" stroke="#000" stroke-miterlimit="10" fill="none"/><path d="M112.79 113.863h7v11h-7zm0 0" fill="#fff"/><use xlink:href="#a" x="112.789" y="122.526" fill="#00f"/><path d="M121.738 138.766l-16.613 11.652M122.82 143.84l-13.293 9.32M140.137 147.328l-18.4-8.562M105.125 150.418l.89 10.105" stroke-width="1.2" stroke="#000" stroke-miterlimit="10" fill="none"/><path d="M106.016 160.523l.894 10.11M106.91 170.633l9.2 4.28" stroke-width="1.2" stroke="#00f" stroke-miterlimit="10" fill="none"/><path d="M116.11 174.914l9.2 4.28" stroke-width="1.2" stroke="#000" stroke-miterlimit="10" fill="none"/><path d="M110.762 167.16l7.36 3.426" stroke-width="1.2" stroke="#00f" stroke-miterlimit="10" fill="none"/><path d="M118.12 170.586l7.364 3.422" stroke-width="1.2" stroke="#000" stroke-miterlimit="10" fill="none"/><path d="M103.91 165.133h7v11h-7zm0 0" fill="#fff"/><use xlink:href="#a" x="103.91" y="173.796" fill="#00f"/><path d="M125.31 179.195l8.303-5.828" stroke-width="1.2" stroke="#000" stroke-miterlimit="10" fill="none"/><path d="M133.613 173.367l8.31-5.824" stroke-width="1.2" stroke="#00f" stroke-miterlimit="10" fill="none"/><path d="M125.31 179.195l1.784 20.215" stroke-width="1.2" stroke="#000" stroke-miterlimit="10" fill="none"/><path d="M141.922 167.543l-.89-10.11" stroke-width="1.2" stroke="#00f" stroke-miterlimit="10" fill="none"/><path d="M141.03 157.434l-.893-10.106" stroke-width="1.2" stroke="#000" stroke-miterlimit="10" fill="none"/><path d="M136.988 165.94l-.715-8.085" stroke-width="1.2" stroke="#00f" stroke-miterlimit="10" fill="none"/><path d="M136.273 157.855l-.714-8.085" stroke-width="1.2" stroke="#000" stroke-miterlimit="10" fill="none"/><path d="M138.922 162.043h7v11h-7zm0 0" fill="#fff"/><use xlink:href="#a" x="138.922" y="170.706" fill="#00f"/><path d="M140.137 147.328l8.308-5.828" stroke-width="1.2" stroke="#000" stroke-miterlimit="10" fill="none"/><path d="M148.445 141.5l8.31-5.828M156.754 135.672l-1.65-10.012" stroke-width="1.2" stroke="#00f" stroke-miterlimit="10" fill="none"/><path d="M155.105 125.66l-1.644-10.012M174.46 145.586l-8.855-4.957" stroke-width="1.2" stroke="#000" stroke-miterlimit="10" fill="none"/><path d="M165.605 140.63l-8.85-4.958" stroke-width="1.2" stroke="#00f" stroke-miterlimit="10" fill="none"/><path d="M153.754 130.172h7v11h-7zm0 0" fill="#fff"/><use xlink:href="#a" x="153.754" y="138.835" fill="#00f"/><path d="M153.46 115.648l13.606-15.058M167.066 100.59l20.258 1.25M187.324 101.84l5.824 8.305" stroke-width="1.2" stroke="#000" stroke-miterlimit="10" fill="none"/><path d="M193.148 110.145l5.83 8.308M198.977 118.453l-2.864 9.734" stroke-width="1.2" stroke="#00f" stroke-miterlimit="10" fill="none"/><path d="M196.113 128.188l-2.863 9.734" stroke-width="1.2" stroke="#000" stroke-miterlimit="10" fill="none"/><path d="M198.977 118.453l10.01-1.644" stroke-width="1.2" stroke="#00f" stroke-miterlimit="10" fill="none"/><path d="M208.988 116.81L219 115.163" stroke-width="1.2" stroke="#000" stroke-miterlimit="10" fill="none"/><path d="M195.977 112.953h7v11h-7zm0 0" fill="#fff"/><use xlink:href="#a" x="195.977" y="121.616" fill="#00f"/><path d="M193.25 137.922l-18.79 7.664M219 115.164l12.863 15.695M231.863 130.86l-7.164 18.988M235.613 134.445l-5.73 15.188M251.887 127.57l-20.024 3.29M224.7 149.848l12.863 15.7M237.563 165.547l20.023-3.293M238.79 160.504l16.02-2.633M257.586 162.254l7.164-18.988M264.75 143.266l-12.863-15.696M259.77 144.723l-10.29-12.555" stroke-width="1.2" stroke="#000" stroke-miterlimit="10" fill="none"/></g></svg>
